img/icons/svg/whatsapp__icon.svg

<svg width="16" height="16" viewBox="0 0 16 16" fill="none" xmlns="http://www.w3.org/2000/svg">
  <g clip-path="url(#clip0)">
    <path
      d="M7.99571 0.00561908C3.58004 0.00655603 0.00119302 3.58694 0.00212996 8.0026C0.00244228 9.53161 0.441214 11.0284 1.26635 12.3157L0.0224304 15.5431C-0.0438116 15.7148 0.0416378 15.9076 0.213286 15.9739C0.25167 15.9887 0.292427 15.9963 0.333559 15.9962C0.371724 15.9964 0.409608 15.9898 0.445493 15.9769L3.77686 14.7876C7.52502 17.122 12.4559 15.9759 14.7903 12.2277C17.1247 8.47948 15.9786 3.54862 12.2304 1.21425C10.9598 0.422903 9.49261 0.0041512 7.99571 0.00561908Z"
      fill="#4CAF50" />
    <path class="path-whatsapp"
      d="M11.8075 9.36634C11.8075 9.36634 10.9913 8.96657 10.4803 8.70007C9.90197 8.40225 9.22237 8.95992 8.90256 9.27708C8.40483 9.08588 7.95022 8.7973 7.56536 8.42824C7.19623 8.04343 6.90765 7.58883 6.71651 7.09103C7.03367 6.77056 7.59 6.09162 7.29352 5.5133C7.03033 5.00161 6.62725 4.18609 6.62725 4.18543C6.57069 4.07319 6.45579 4.00232 6.33009 4.0022H5.66382C4.69352 4.16979 3.98804 5.01641 3.99815 6.00101C3.99815 7.04705 5.25007 9.05655 6.09426 9.90136C6.93845 10.7462 8.94791 11.9975 9.99461 11.9975C10.9792 12.0076 11.8258 11.3021 11.9934 10.3318V9.66553C11.9935 9.53848 11.9214 9.42246 11.8075 9.36634Z"
      fill="#FAFAFA" />
  </g>
  <defs>
    <clipPath id="clip0">
      <rect width="16" height="16" fill="white" transform="translate(0 0.000244141)" />
    </clipPath>
  </defs>
</svg>

<svg width="16" height="16" viewBox="0 0 16 16" fill="none" xmlns="http://www.w3.org/2000/svg"><g clip-path="url(#clip0)"><path d="M7.996.006a7.995 7.995 0 00-6.73 12.31L.022 15.543a.333.333 0 00.423.434l3.332-1.19A7.995 7.995 0 107.996.007z" fill="#4CAF50"/><path class="path-whatsapp" d="M11.807 9.366s-.816-.4-1.327-.666c-.578-.298-1.258.26-1.577.577a4.01 4.01 0 01-1.338-.849 4.006 4.006 0 01-.848-1.337c.317-.32.873-1 .577-1.578a96.156 96.156 0 01-.667-1.328.333.333 0 00-.297-.183h-.666a2.007 2.007 0 00-1.666 1.999c0 1.046 1.252 3.056 2.096 3.9.844.845 2.854 2.097 3.9 2.097a2.007 2.007 0 002-1.666v-.666a.333.333 0 00-.187-.3z" fill="#FAFAFA"/></g><defs><clipPath id="clip0"><path fill="#fff" d="M0 0h16v16H0z"/></clipPath></defs></svg>
